icons/vite.svg

<svg width="16" height="16" viewBox="0 0 16 16" fill="none" xmlns="http://www.w3.org/2000/svg">
<path d="M13.4262 4.16917L8.04095 13.942C7.92976 14.1438 7.6441 14.145 7.53125 13.9442L2.03916 4.17011C1.91621 3.9513 2.10058 3.68626 2.34491 3.73058L7.73598 4.70851C7.77037 4.71475 7.80558 4.71469 7.83997 4.70833L13.1183 3.73198C13.3618 3.68694 13.547 3.94993 13.4262 4.16917Z" fill="#A074FF"/>
<path d="M10.1362 2.00265L6.34561 2.73602C6.28331 2.74807 6.23718 2.80021 6.23343 2.86277L6.00025 6.75113C5.99476 6.84272 6.07995 6.9138 6.17048 6.89319L7.22583 6.65271C7.32458 6.63022 7.4138 6.71609 7.39351 6.81413L7.07996 8.33011C7.05886 8.43214 7.15588 8.51938 7.25679 8.48911L7.90863 8.29358C8.00968 8.26328 8.10678 8.35078 8.0854 8.45289L7.58713 10.8341C7.55595 10.9831 7.7566 11.0643 7.84028 10.9366L7.89618 10.8513L10.9849 4.765C11.0367 4.66309 10.9475 4.54689 10.8342 4.56849L9.74787 4.7755C9.64572 4.79493 9.55889 4.70107 9.58771 4.60245L10.2967 2.17562C10.3256 2.07683 10.2384 1.98289 10.1362 2.00265Z" fill="#FFCC17"/>
</svg>

<svg xmlns="http://www.w3.org/2000/svg" width="16" height="16" fill="none"><path fill="#A074FF" d="m13.426 4.17-5.385 9.772a.29.29 0 0 1-.51.002L2.04 4.17c-.123-.219.062-.484.306-.44l5.391.979c.034.006.07.006.104 0l5.278-.977c.244-.045.429.218.308.437Z"/><path fill="#FFCC17" d="m10.136 2.003-3.79.733a.138.138 0 0 0-.113.127L6 6.75a.139.139 0 0 0 .17.142l1.056-.24a.138.138 0 0 1 .168.161L7.08 8.33a.138.138 0 0 0 .177.16l.652-.196a.138.138 0 0 1 .176.159l-.498 2.381c-.031.15.17.23.253.103l.056-.086 3.089-6.086a.138.138 0 0 0-.15-.197l-1.087.208a.138.138 0 0 1-.16-.174l.709-2.426a.138.138 0 0 0-.16-.173Z"/></svg>
